Origami/32x32/apps/desmume.svg

<svg width="32" height="32" version="1.1" viewBox="0 0 32 32" xmlns="http://www.w3.org/2000/svg">
 <path d="m30 29.6v-13.6h-28v13.6c0 0.7756 0.6244 1.4 1.4 1.4h25.2c0.7756 0 1.4-0.6244 1.4-1.4z" style="opacity:.2"/>
 <rect transform="matrix(0,-1,-1,0,0,0)" x="-30" y="-30" width="28" height="28" rx="1.4" ry="1.4" style="fill:#9293ff"/>
 <path d="m30 28.6v-13.6h-28v13.6c0 0.7756 0.6244 1.4 1.4 1.4h25.2c0.7756 0 1.4-0.6244 1.4-1.4z" style="fill:#6469bb"/>
 <path d="m8 4h16v9h-16m0-9" style="fill:#3e3e3e"/>
 <path d="m10 19h12v9h-12m0-9" style="fill:#3e3e3e"/>
 <path d="m5 21v2h-2v2h2v2h2v-2h2v-2h-2v-2zm21 0a1 1 0 0 0 -1 1 1 1 0 0 0 1 1 1 1 0 0 0 1 -1 1 1 0 0 0 -1 -1zm-2 2a1 1 0 0 0 -1 1 1 1 0 0 0 1 1 1 1 0 0 0 1 -1 1 1 0 0 0 -1 -1zm4 0a1 1 0 0 0 -1 1 1 1 0 0 0 1 1 1 1 0 0 0 1 -1 1 1 0 0 0 -1 -1zm-2 2a1 1 0 0 0 -1 1 1 1 0 0 0 1 1 1 1 0 0 0 1 -1 1 1 0 0 0 -1 -1z" style="opacity:.2"/>
 <g transform="matrix(.66666667 0 0 .66666667 -3.6800003 11.38)" style="fill:#cccccc">
  <rect x="13.02" y="12.93" width="3" height="9" ry="0"/>
  <rect transform="rotate(90)" x="15.93" y="-19.02" width="3" height="9" ry="0"/>
 </g>
 <g transform="matrix(.66666669 0 0 .66666669 6.6906527 .52142753)" style="fill:#cccccc">
  <circle cx="31.964" cy="33.718" r="1.5" style="fill:#cccccc"/>
  <g transform="translate(-4.5559803,16.287855)" style="fill:#cccccc">
   <circle cx="30.52" cy="17.43" r="1.5" style="fill:#cccccc"/>
   <circle transform="rotate(90)" cx="14.43" cy="-33.52" r="1.5" style="fill:#cccccc"/>
  </g>
  <circle transform="rotate(90)" cx="36.718" cy="-28.964" r="1.5" style="fill:#cccccc"/>
 </g>
 <rect x="2" y="15" width="28" height="1" style="opacity:.2"/>
 <rect x="3" y="12" width="4" height="1" style="opacity:.2"/>
 <rect x="3" y="10" width="4" height="1" style="opacity:.2"/>
 <rect x="3" y="8" width="4" height="1" style="opacity:.2"/>
 <rect x="25" y="12" width="4" height="1" style="opacity:.2"/>
 <rect x="25" y="10" width="4" height="1" style="opacity:.2"/>
 <rect x="25" y="8" width="4" height="1" style="opacity:.2"/>
 <path d="M 3.4003906 2 C 2.6247906 2 2 2.6247906 2 3.4003906 L 2 4.4003906 C 2 3.6247906 2.6247906 3 3.4003906 3 L 28.599609 3 C 29.375209 3 30 3.6247906 30 4.4003906 L 30 3.4003906 C 30 2.6247906 29.375209 2 28.599609 2 L 3.4003906 2 z" style="fill:#ffffff;opacity:.2"/>
</svg>

<svg xmlns="http://www.w3.org/2000/svg" width="32" height="32" version="1.1" viewBox="0 0 32 32">
 <path style="opacity:0.2" d="M 30,29.6 V 16 H 2 V 29.6 C 2,30.3756 2.6244,31 3.4,31 h 25.2 c 0.7756,0 1.4,-0.6244 1.4,-1.4 z"/>
 <rect style="fill:#9293ff" width="28" height="28" x="-30" y="-30" rx="1.4" ry="1.4" transform="matrix(0,-1,-1,0,0,0)"/>
 <path style="fill:#6469bb" d="M 30,28.6 V 15 H 2 V 28.6 C 2,29.3756 2.6244,30 3.4,30 h 25.2 c 0.7756,0 1.4,-0.6244 1.4,-1.4 z"/>
 <path style="fill:#3e3e3e" d="m 8,4 h 16 v 9 H 8 M 8,4"/>
 <path style="fill:#3e3e3e" d="m 10,19 h 12 v 9 H 10 m 0,-9"/>
 <path style="opacity:0.2" d="m 5,21 v 2 H 3 v 2 h 2 v 2 H 7 V 25 H 9 V 23 H 7 v -2 z m 21,0 a 1,1 0 0 0 -1,1 1,1 0 0 0 1,1 1,1 0 0 0 1,-1 1,1 0 0 0 -1,-1 z m -2,2 a 1,1 0 0 0 -1,1 1,1 0 0 0 1,1 1,1 0 0 0 1,-1 1,1 0 0 0 -1,-1 z m 4,0 a 1,1 0 0 0 -1,1 1,1 0 0 0 1,1 1,1 0 0 0 1,-1 1,1 0 0 0 -1,-1 z m -2,2 a 1,1 0 0 0 -1,1 1,1 0 0 0 1,1 1,1 0 0 0 1,-1 1,1 0 0 0 -1,-1 z"/>
 <g style="fill:#cccccc" transform="matrix(0.66666667,0,0,0.66666667,-3.6800003,11.38)">
  <rect width="3" height="9" x="13.02" y="12.93" ry="0"/>
  <rect width="3" height="9" x="15.93" y="-19.02" ry="0" transform="rotate(90)"/>
 </g>
 <g style="fill:#cccccc" transform="matrix(0.66666669,0,0,0.66666669,6.6906527,0.52142753)">
  <circle style="fill:#cccccc" cx="31.964" cy="33.718" r="1.5"/>
  <g style="fill:#cccccc" transform="translate(-4.5559803,16.287855)">
   <circle style="fill:#cccccc" cx="30.52" cy="17.43" r="1.5"/>
   <circle style="fill:#cccccc" cx="14.43" cy="-33.52" r="1.5" transform="rotate(90)"/>
  </g>
  <circle style="fill:#cccccc" cx="36.718" cy="-28.964" r="1.5" transform="rotate(90)"/>
 </g>
 <rect style="opacity:0.2" width="28" height="1" x="2" y="15"/>
 <rect style="opacity:0.2" width="4" height="1" x="3" y="12"/>
 <rect style="opacity:0.2" width="4" height="1" x="3" y="10"/>
 <rect style="opacity:0.2" width="4" height="1" x="3" y="8"/>
 <rect style="opacity:0.2" width="4" height="1" x="25" y="12"/>
 <rect style="opacity:0.2" width="4" height="1" x="25" y="10"/>
 <rect style="opacity:0.2" width="4" height="1" x="25" y="8"/>
 <path style="fill:#ffffff;opacity:0.2" d="M 3.4003906 2 C 2.6247906 2 2 2.6247906 2 3.4003906 L 2 4.4003906 C 2 3.6247906 2.6247906 3 3.4003906 3 L 28.599609 3 C 29.375209 3 30 3.6247906 30 4.4003906 L 30 3.4003906 C 30 2.6247906 29.375209 2 28.599609 2 L 3.4003906 2 z"/>
</svg>
